!!!COM: Corelli, Arcangelo
!!!OTL: Sonate a tre [in G]
!!!XEN: Trio Sonata Opus 1, No. 9
!!!OPS: Opus 1
!!!ONM: No. 9
!!!OMV: Movement 3.
!!!YEC: Copyright 1994, Center for Computer Assisted Research in the Humanities
!!!YEM: Rights to all derivative electronic formats reserved.
!!!YEM: Refer to licensing agreement for further details.
!! For the following instrumentation: Violino I & II, Violone/Archlute,
!!    and Organo.
!! Adagio.
**kern	**kern	**kern	**kern
*ICklav	*ICstr	*ICstr	*ICstr
*Iorgan	*Icello	*Ivioln	*Ivioln
*	*Iarchl	*	*
!Organo	!Violone	!Violin 2	!Violin 1
!	! or	!	!
!	!Archlute	!	!
*clefF4	*clefF4	*clefG2	*clefG2
*k[]	*k[]	*k[]	*k[]
*?:	*?:	*?:	*?:
*M3/2	*M3/2	*M3/2	*M3/2
*MM78	*MM78	*MM78	*MM78
=1-	=1-	=1-	=1-
2E\	2E\	2g/	2b\
2.D#\	2.D#\	2.f#/	2.b\
4D#\	4D#\	4f#/	4b\
=2	=2	=2	=2
2E\	2E\	2g/	2b\
2.EE/	2.EE/	2.e/	2.g/
4E\	4E\	4g/	4cc\
=3	=3	=3	=3
2D\	2D\	2f#/	2b\
2.C/	2.C/	2.e/	2.a/
4C/	4C/	4e/	4b\
=4	=4	=4	=4
1.BB/	1.BB/	1.d#/	1.b\
=5	=5	=5	=5
2G\	2G\	2b\	2ee\
2.F#\	2.F#\	2.a/	2.dd\
4F#\	4F#\	4a/	4ee\
=6	=6	=6	=6
2E\	2E\	2g/	2cc\
2.D\	2.D\	2.f#/	2.cc\
4BB/	4BB/	4g/	4dd\
=7	=7	=7	=7
2C/	2C/	2g/	2ee\
2.D\	2.D\	2.g/	2.a/
4DD/	4DD/	4f#/	4a/
=8	=8	=8	=8
1.GG/	1.GG/	1.g/	1.g/
=9	=9	=9	=9
1.G\	1.G\	2dd\	2bb\
.	.	2.b\	2.gg\
.	.	4dd\	4bb\
=10	=10	=10	=10
1.F#\	1.F#\	2dd\	2aa\
.	.	2.a/	2.dd\
.	.	4dd\	4aa\
=11	=11	=11	=11
2E\	2E\	2dd\	2gg\
1AA/	1AA/	2.cc#\	2.gg\
.	.	4cc#\	4aa\
=12	=12	=12	=12
1.D\	1.D\	1.dd\	1.ff#\
=13	=13	=13	=13
2d\	2d\	2ff#\	2aa\
2.B\	2.B\	2.dd\	2.gg\
4A\	4A\	4cc#\	4ff#\
=14	=14	=14	=14
2G\	2G\	2b\	2ff#\
2.G\	2.G\	2.cc#\	2.ee\
4F#\	4F#\	4dd\	4aa\
=15	=15	=15	=15
2G\	2G\	2dd\	2bb\
2A\	2.A\	2.dd\	2.ee\
2AA/	.	.	.
.	4AA/	4cc#\	4ee\
=16	=16	=16	=16
1.D\	1.D\	1.dd\	1.dd\
=17	=17	=17	=17
2D\	2D\	2f#/	2dd\
2.E\	2.E\	2.g/	2.cc\
4F#\	4F#\	4a/	4cc\
=18	=18	=18	=18
2G\	2G\	2d/	2cc\
2.GG/	2.GG/	2.d/	2.b\
4GG/	4GG/	4g/	4b\
=19	=19	=19	=19
2GG/	2GG/	2g/	2b\
1AA/	1AA/	2.f#/	2.a/
.	.	4e/	4g/
=20	=20	=20	=20
1.BB/	1.BB/	1.d#/	1.f#/
=21	=21	=21	=21
2GG/	2GG/	1.r	2gg\
1AA/	1AA/	.	2.ff\
.	.	.	4ee\
=22	=22	=22	=22
2BB/	2BB/	2bb\	2dd#\
2.C/	2.C/	2.aa\	2.ee\
4GG/	4GG/	4bb\	4ee\
=23	=23	=23	=23
2AA/	2AA/	2gg\	2ee\
1BB/	1BB/	2.ff#\	2.ee\
.	.	4ff#\	4dd#\
=24	=24	=24	=24
1.EE/	1.EE/	1.ee\	1.ee\
=25	=25	=25	=25
2E\	2E\	1.r	2ee\
1F#\	1F#\	.	2.dd\
.	.	.	4cc\
=26	=26	=26	=26
1.G\	1.G\	1.r	2b\
.	.	.	1g/
=27	=27	=27	=27
2GG/	2GG/	2dd\	2b\
1C/	1C/	2.cc\	2.a/
.	.	4b\	4g/
=28	=28	=28	=28
1.D\	1.D\	2a/	1.f#/
.	.	1d/	.
=29	=29	=29	=29
2G\	2G\	2b\	2dd\
2.E\	2.E\	2.g/	2.cc\
4D\	4D\	4f#/	4b\
=30	=30	=30	=30
2C/	2C/	2e/	2b\
2.C/	2.C/	2.f#/	2.a/
4BB/	4BB/	4g/	4dd\
=31	=31	=31	=31
2C/	2C/	2g/	2ee\
2.D\	2.D\	2.g/	2.a/
4DD/	4DD/	4f#/	4a/
=32	=32	=32	=32
1.GG/	1.GG/	1.g/	1.g/
=33	=33	=33	=33
2G\	2G\	2b\	2dd\
2.E\	2.E\	2.g/	2.cc\
4D\	4D\	4f#/	4b\
=34	=34	=34	=34
2C/	2C/	2e/	2b\
2.C/	2.C/	2.f#/	2.a/
4BB/	4BB/	4g/	4dd\
=35	=35	=35	=35
2C/	2C/	2g/	2ee\
2.D\	2.D\	2.g/	2.a/
4DD/	4DD/	4f#/	4a/
=36	=36	=36	=36
1.GG/	1.GG/	1.g/	1.g/
==	==	==	==
*-	*-	*-	*-
!!!CDT: 1653/2/17/-1713/1/8
!!!OCY: Italia
!!!ODE: Queen Christina Alexandra of Sweden
!!!ODT: 1681//
!!!OPC: Roma; Rome
!!!AGN: trio sonata
!!!AST: baroque, chamber
!!!AMT: simple triple
!!!YOR1: J. Joachim & F. Chrysander (eds.) Les Oeuvre de Arcangelo Corelli
!!!YOR2: London: Augener & Co. 1871
!!!YOY: 1871
!!!AIN: archl cello organ violn
!!!EEV: 1.1
!!!RDT: 1993 September 15
!!!YER: 1994 December 14
!!!EMD: 1996 July 9
!!!YEN: United States of America
!!!EFL: 3/4
!!!ENC: Frances Bennion & Steven Rasmussen
!!!EED: W.B. Hewlett
!!!VTS: 2053469476
